boxicons/svg/solid/bxs-customize.svg

<svg xmlns="http://www.w3.org/2000/svg" width="24" height="24" viewBox="0 0 24 24"><path d="M10 3H4C3.447 3 3 3.447 3 4v6c0 .553.447 1 1 1h6c.553 0 1-.447 1-1V4C11 3.447 10.553 3 10 3zM20 3h-6c-.553 0-1 .447-1 1v6c0 .553.447 1 1 1h6c.553 0 1-.447 1-1V4C21 3.447 20.553 3 20 3zM10 13H4c-.553 0-1 .447-1 1v6c0 .553.447 1 1 1h6c.553 0 1-.447 1-1v-6C11 13.447 10.553 13 10 13zM18 14L16 14 16 16 14 16 14 18 16 18 16 20 18 20 18 18 20 18 20 16 18 16z"/></svg>

<svg xmlns="http://www.w3.org/2000/svg" width="24" height="24" viewBox="0 0 24 24"><path d="M10 3H4a1 1 0 0 0-1 1v6a1 1 0 0 0 1 1h6a1 1 0 0 0 1-1V4a1 1 0 0 0-1-1zm10 0h-6a1 1 0 0 0-1 1v6a1 1 0 0 0 1 1h6a1 1 0 0 0 1-1V4a1 1 0 0 0-1-1zM10 13H4a1 1 0 0 0-1 1v6a1 1 0 0 0 1 1h6a1 1 0 0 0 1-1v-6a1 1 0 0 0-1-1zm8 1h-2v2h-2v2h2v2h2v-2h2v-2h-2z"/></svg>
